Gruvbox-Plus-Dark/apps/16/babe.svg

<svg width="16" height="16" version="1.1" viewBox="0 0 16 16" xmlns="http://www.w3.org/2000/svg">
  <defs>
    <style type="text/css" id="current-color-scheme">.ColorScheme-Text { color:#ebdbb2; } .ColorScheme-Highlight { color:#458588; }</style>
  </defs>
  <path class="ColorScheme-Text" fill="currentColor" d="m3.429 2.095v1.524h2.285v-1.524h-2.285zm6.857 0v1.524h2.285v-1.524h-2.285zm-10.29 1.524v1.524h2.286v-1.524h-2.286zm13.71 0v1.524h2.286v-1.524h-2.286zm-6.857 0.762v1.524h2.286v-1.524h-2.286zm-3.428 0.381v1.524h2.285v-1.524h-2.285zm6.857 0v1.524h2.285v-1.524h-2.285zm-10.29 1.524v1.524h2.286v-1.524h-2.286zm13.71 0v1.524h2.286v-1.524h-2.286zm-6.857 0.762v1.523h2.286v-1.523h-2.286zm-3.428 0.381v1.523h2.285v-1.523h-2.285zm6.857 0v1.523h2.285v-1.523h-2.285zm-10.29 1.523v1.524h2.286v-1.524h-2.286zm13.71 0v1.524h2.286v-1.524h-2.286zm-6.857 0.762v1.524h2.286v-1.524h-2.286zm-3.428 0.381v1.524h2.285v-1.524h-2.285zm6.857 0v1.524h2.285v-1.524h-2.285zm-3.429 2.286v1.524h2.286v-1.524h-2.286z"/>
</svg>

<svg xmlns="http://www.w3.org/2000/svg" style="isolation:isolate" width="16" height="16" viewBox="0 0 16 16">
 <defs>
  <style id="current-color-scheme" type="text/css">
   .ColorScheme-Text { color:#ebdbb2; } .ColorScheme-Highlight { color:#458588; }
  </style>
  <linearGradient id="arrongin" x1="0%" x2="0%" y1="0%" y2="100%">
   <stop offset="0%" style="stop-color:#d79921; stop-opacity:1"/>
   <stop offset="100%" style="stop-color:#b57614; stop-opacity:1"/>
  </linearGradient>
  <linearGradient id="aurora" x1="0%" x2="0%" y1="0%" y2="100%">
   <stop offset="0%" style="stop-color:#83a598; stop-opacity:1"/>
   <stop offset="100%" style="stop-color:#b16286; stop-opacity:1"/>
  </linearGradient>
  <linearGradient id="fitdance" x1="0%" x2="0%" y1="0%" y2="100%">
   <stop offset="0%" style="stop-color:#8ec07c; stop-opacity:1"/>
   <stop offset="100%" style="stop-color:#458588; stop-opacity:1"/>
  </linearGradient>
  <linearGradient id="oomox" x1="0%" x2="0%" y1="0%" y2="100%">
   <stop offset="0%" style="stop-color:#458588; stop-opacity:1"/>
   <stop offset="100%" style="stop-color:#928374; stop-opacity:1"/>
  </linearGradient>
  <linearGradient id="rainblue" x1="0%" x2="0%" y1="0%" y2="100%">
   <stop offset="0%" style="stop-color:#b8bb26; stop-opacity:1"/>
   <stop offset="100%" style="stop-color:#076678; stop-opacity:1"/>
  </linearGradient>
  <linearGradient id="sunrise" x1="0%" x2="0%" y1="0%" y2="100%">
   <stop offset="0%" style="stop-color: #fe8019; stop-opacity:1"/>
   <stop offset="100%" style="stop-color: #fabd2f; stop-opacity:1"/>
  </linearGradient>
  <linearGradient id="telinkrin" x1="0%" x2="0%" y1="0%" y2="100%">
   <stop offset="0%" style="stop-color: #83a598; stop-opacity:1"/>
   <stop offset="100%" style="stop-color: #83a598; stop-opacity:1"/>
  </linearGradient>
  <linearGradient id="60spsycho" x1="0%" x2="0%" y1="0%" y2="100%">
   <stop offset="0%" style="stop-color: #fb4934; stop-opacity:1"/>
   <stop offset="25%" style="stop-color: #fabd2f; stop-opacity:1"/>
   <stop offset="50%" style="stop-color: #fe8019; stop-opacity:1"/>
   <stop offset="100%" style="stop-color: #689d6a; stop-opacity:1"/>
  </linearGradient>
  <linearGradient id="90ssummer" x1="0%" x2="0%" y1="0%" y2="100%">
   <stop offset="0%" style="stop-color: #b16286; stop-opacity:1"/>
   <stop offset="20%" style="stop-color: #8ec07c; stop-opacity:1"/>
   <stop offset="50%" style="stop-color: #fabd2f; stop-opacity:1"/>
   <stop offset="100%" style="stop-color: #458588; stop-opacity:1"/>
  </linearGradient>
  <linearGradient id="cyberneon" x1="0%" x2="0%" y1="0%" y2="100%">
    <stop offset="0" style="stop-color:#83a598; stop-opacity:1"/>
    <stop offset="1" style="stop-color:#b16286; stop-opacity:1"/>
  </linearGradient>
 </defs>
 <path style="fill:currentColor" class="ColorScheme-Text" d="M 3.429 2.095 L 3.429 3.619 L 5.714 3.619 L 5.714 2.095 L 3.429 2.095 Z M 10.286 2.095 L 10.286 3.619 L 12.571 3.619 L 12.571 2.095 L 10.286 2.095 Z M 0 3.619 L 0 5.143 L 2.286 5.143 L 2.286 3.619 L 0 3.619 Z M 13.714 3.619 L 13.714 5.143 L 16 5.143 L 16 3.619 L 13.714 3.619 Z M 6.857 4.381 L 6.857 5.905 L 9.143 5.905 L 9.143 4.381 L 6.857 4.381 Z M 3.429 4.762 L 3.429 6.286 L 5.714 6.286 L 5.714 4.762 L 3.429 4.762 Z M 10.286 4.762 L 10.286 6.286 L 12.571 6.286 L 12.571 4.762 L 10.286 4.762 Z M 0 6.286 L 0 7.81 L 2.286 7.81 L 2.286 6.286 L 0 6.286 Z M 13.714 6.286 L 13.714 7.81 L 16 7.81 L 16 6.286 L 13.714 6.286 Z M 6.857 7.048 L 6.857 8.571 L 9.143 8.571 L 9.143 7.048 L 6.857 7.048 Z M 3.429 7.429 L 3.429 8.952 L 5.714 8.952 L 5.714 7.429 L 3.429 7.429 Z M 10.286 7.429 L 10.286 8.952 L 12.571 8.952 L 12.571 7.429 L 10.286 7.429 Z M 0 8.952 L 0 10.476 L 2.286 10.476 L 2.286 8.952 L 0 8.952 Z M 13.714 8.952 L 13.714 10.476 L 16 10.476 L 16 8.952 L 13.714 8.952 Z M 6.857 9.714 L 6.857 11.238 L 9.143 11.238 L 9.143 9.714 L 6.857 9.714 Z M 3.429 10.095 L 3.429 11.619 L 5.714 11.619 L 5.714 10.095 L 3.429 10.095 Z M 10.286 10.095 L 10.286 11.619 L 12.571 11.619 L 12.571 10.095 L 10.286 10.095 Z M 6.857 12.381 L 6.857 13.905 L 9.143 13.905 L 9.143 12.381 L 6.857 12.381 Z"/>
</svg>
